images/dcn.svg

<svg height="250" viewBox="0 0 250 250" width="250" xmlns="http://www.w3.org/2000/svg" xmlns:xlink="http://www.w3.org/1999/xlink"><clipPath id="a"><path d="m250 125c0 69.035156-55.964844 125-125 125s-125-55.964844-125-125 55.964844-125 125-125 125 55.964844 125 125zm0 0"/></clipPath><clipPath id="b"><path d="m36 4h176v241h-176zm0 0"/></clipPath><clipPath id="c"><path d="m250 125c0 69.035156-55.964844 125-125 125s-125-55.964844-125-125 55.964844-125 125-125 125 55.964844 125 125zm0 0"/></clipPath><g clip-path="url(#a)"><path d="m251 126c-.5 70-57.5 126-127 125.5-34.5 0-65.5-14-88-37-23-23-37.5-55-37-90.5.5-70 57.5-126 127-125.5s125.5 57.5 125 127.5"/></g><g clip-path="url(#b)"><g clip-path="url(#c)"><path d="m64.5 168-28 47.5s11.5 15.5 44 28l16-43.5 11-29 11-32.5s4-10.5 4-10.5l.5-1s0-.5.5-.5l.5-.5h.5 1l.5 1 3 9 7.5 23 6.5 20.5 10.5 31.5 8 22 3.5 12s25.5-7 47-28.5l-15.5-23.5-10-17.5-10.5-20-8.5-17.5-7-16-5.5-16.5-5-15.5-5.5-17.5-5.5-18.5-5-18.5-5.5-20.5-3.5-11-6 19.5-8.5 27.5-6.5 20.5-8 23.5-6.5 19-7.5 18-8 17.5zm0 0" fill="#fff"/></g></g></svg>

<!-- Generator: Adobe Illustrator 22.1.0, SVG Export Plug-In . SVG Version: 6.00 Build 0)  -->
<svg xmlns="http://www.w3.org/2000/svg" xmlns:xlink="http://www.w3.org/1999/xlink" width="250px" height="250px" viewBox="0 0 250 250" version="1.1">
<defs>
<clipPath id="clip1">
  <path d="M 250 125 C 250 194.035156 194.035156 250 125 250 C 55.964844 250 0 194.035156 0 125 C 0 55.964844 55.964844 0 125 0 C 194.035156 0 250 55.964844 250 125 Z M 250 125 "/>
</clipPath>
<clipPath id="clip2">
  <path d="M 36 4 L 212 4 L 212 245 L 36 245 Z M 36 4 "/>
</clipPath>
<clipPath id="clip3">
  <path d="M 250 125 C 250 194.035156 194.035156 250 125 250 C 55.964844 250 0 194.035156 0 125 C 0 55.964844 55.964844 0 125 0 C 194.035156 0 250 55.964844 250 125 Z M 250 125 "/>
</clipPath>
</defs>
<g id="surface1">
<g clip-path="url(#clip1)" clip-rule="nonzero">
<path style=" stroke:none;fill-rule:nonzero;fill:rgb(0%,0%,0%);fill-opacity:1;" d="M 251 126 C 250.5 196 193.5 252 124 251.5 C 89.5 251.5 58.5 237.5 36 214.5 C 13 191.5 -1.5 159.5 -1 124 C -0.5 54 56.5 -2 126 -1.5 C 195.5 -1 251.5 56 251 126 "/>
</g>
<g clip-path="url(#clip2)" clip-rule="nonzero">
<g clip-path="url(#clip3)" clip-rule="nonzero">
<path style=" stroke:none;fill-rule:nonzero;fill:rgb(100%,100%,100%);fill-opacity:1;" d="M 64.5 168 L 36.5 215.5 C 36.5 215.5 48 231 80.5 243.5 L 96.5 200 L 107.5 171 L 118.5 138.5 C 118.5 138.5 122.5 128 122.5 128 L 123 127 C 123 127 123 126.5 123.5 126.5 L 124 126 C 124 126 124 126 124.5 126 L 125.5 126 L 126 127 L 129 136 L 136.5 159 L 143 179.5 L 153.5 211 L 161.5 233 L 165 245 C 165 245 190.5 238 212 216.5 L 196.5 193 L 186.5 175.5 L 176 155.5 L 167.5 138 L 160.5 122 L 155 105.5 L 150 90 L 144.5 72.5 L 139 54 L 134 35.5 L 128.5 15 L 125 4 L 119 23.5 L 110.5 51 L 104 71.5 L 96 95 L 89.5 114 L 82 132 L 74 149.5 Z M 64.5 168 "/>
</g>
</g>
</g>
</svg>
